X:1
T:The Whiteadder Jig
P:Pearlin' Jean
C:Muriel Johnstone
C:Whiteadder Collection
R:Jig
B:The Whiteadder Collection
Z:arr. Terry Traub 10-6-02
M:6/8
K:Am
L: 1/8
|: f| "Am" eAA "Dm" d>cB| "Am" cAA A2 d| "Am"eAA "D7" dcA| "G" BGG GBd|"Am" eAA "Dm" d>cA| "G"BGB "C"cde|"Dm" dcA "G" GAB|"Am" cAA A2 :|
|:"Am" a>ge "Dm" fed|"Am"eAA A2 a-|"Am"age "D7"d2 c|"G"BGG G2 e|"Am"a>ge "Dm"fed|"E7"Bcd "Am"e>de| "Dm"dcA "G"GAB|"Am"cAA A2 :|
